X: 40796
T: Tra An Phearla
R: waltz
M: 3/4
K: Aminor
"Am"A4G2|"Em"E3 DE/^F/G|"Am"A6-|A2 "Dm"c2d2|"Fmaj7"e6|"Dm"d3cA2|"/E"c2"F"d4-|"F"d3cd/c/B|
"E"B6|"F7"c4dc/B/|"E"B6|"E7"E3DE/^F/G|"Am"A6|"Em"B3cB/A/G|"Am"A6-|A2"E7"c2B2|
"Am"A4G2|"Em"E3DE/^F/G|"Am"A6-|A2"Dm"c2d2|"Fmaj7"e6|"Dm"d3cA2|"/E"c2"F"d4-|"F"d3cd/c/B|
"E"B6|"F7"c4d/c/B|"E"B6|"E7"E3DE/^F/G|"Am"A6|"Em"B3cB/A/G|"Am"A6-|A2z"G7"B cd||
"C"e6|"G/B"g4e2|"Am"c6-|"Am7"c3B cd|"Em"e6|"F"a6|"F#dim"A6-|A6|
"F"a6|"G"b4a2|"C"g4a2|"Am"e6|"F"A6|"F#dim"c4A2|"E7"e6-|"E7"e6|
"Fmaj7"e6|"G/B"g4e2|"Am"c6-|"Am7"c3B cd|"Em"e6|"F"a6|"F#dim"A6-|"F#dim"A6|
"F"a6|"G"b4a2|"C"g4a2|"Am"e6|"F"A6|"Cdim"c4A2|"E7"e6-|"E7"e6||

